static/piggy-bank.svg

<?xml version="1.0" encoding="UTF-8"?>
<svg width="56px" height="51px" viewBox="0 0 56 51" version="1.1" xmlns="http://www.w3.org/2000/svg" xmlns:xlink="http://www.w3.org/1999/xlink">
    <!-- Generator: Sketch 49.3 (51167) - http://www.bohemiancoding.com/sketch -->
    <title>piggy-bank</title>
    <desc>Created with Sketch.</desc>
    <defs></defs>
    <g id="Page-1" stroke="none" stroke-width="1" fill="none" fill-rule="evenodd">
        <g id="9-Lyft-Copy" transform="translate(-762.000000, -503.000000)" fill="#0012B9">
            <g id="stats---Blue" transform="translate(428.000000, 485.000000)">
                <g id="piggy-bank" transform="translate(334.000000, 18.000000)">
                    <path d="M3.32176766,23.9525872 C4.00482178,23.9525872 4.5584797,24.5702567 4.5584797,25.3322063 C4.5584797,26.094156 4.00482178,26.7118254 3.32176766,26.7118254 C2.63879406,26.7118254 2.08505562,26.094156 2.08505562,25.3322063 C2.08505562,24.5702567 2.63871354,23.9525872 3.32176766,23.9525872 M42.5858249,22.4911507 C43.4552032,22.4911507 44.1599172,23.18176 44.1599172,24.0338448 C44.1599172,24.8857696 43.4552032,25.5765389 42.5858249,25.5765389 C41.7166078,25.5765389 41.0117326,24.8857696 41.0117326,24.0338448 C41.0117326,23.18176 41.7166078,22.4911507 42.5858249,22.4911507 M28.3900069,15.0276912 C29.4690601,15.0302505 30.5378067,15.1071892 31.5860206,15.2584275 L31.4468009,17.8626685 C29.2461798,17.5455561 26.9408822,17.5862648 24.6400132,17.9856745 C22.3212687,18.3834847 20.1470582,19.1080047 18.1768058,20.1416393 L17.1827821,17.730545 C19.3286494,16.6069352 21.6883788,15.8188328 24.1969902,15.3875918 C25.5978833,15.144139 27.0026413,15.0244121 28.3900069,15.0276912 M43.4938529,12.9282708 C41.0945881,12.9068367 38.9616846,13.5211471 37.2759105,14.7431297 C34.5706684,13.851216 31.6997153,13.3994207 28.73093,13.3994207 C19.9333572,13.3994207 12.3356181,17.4509422 8.85472345,23.276054 C7.92253937,22.6107976 6.88841652,22.1722787 5.82482323,21.9978469 C5.10762848,21.0292343 4.03147402,20.2633657 2.69539987,19.8091711 C2.04431232,19.5880322 1.32389676,19.8944276 1.08217467,20.490583 C0.841982473,21.088338 1.1748536,21.7503952 1.82408917,21.9716941 C2.1079234,22.0677476 2.35737544,22.1791568 2.57993369,22.3004033 C1.3557023,22.7666746 0.457980928,23.6149204 0.14926591,24.6395975 C-0.255831966,25.9885851 0.175112942,27.242319 1.30231731,27.9934716 C1.894625,28.3876028 2.61246391,28.5865879 3.32708201,28.5865879 C3.97390197,28.5873077 4.61725956,28.4236728 5.15956411,28.093444 C6.25319149,27.430507 6.86667603,26.1830114 6.81562613,24.7740404 C7.1502687,24.9584695 7.46735783,25.2019223 7.772691,25.4721677 C7.16025322,27.0370157 6.8281873,28.6957577 6.8281873,30.4124838 C6.8281873,34.8105496 8.95432712,38.9471675 12.8292884,42.1190118 C12.7465135,44.0655944 12.7350796,48.3043442 14.0511042,49.7992115 C14.9689556,50.8438831 16.8850179,51 17.9469202,51 C18.618782,51 20.8972663,50.9200221 22.0185122,49.8905463 C22.6485034,49.3129458 22.9792005,48.0286603 23.151514,46.8679408 C25.8909773,47.4277862 28.754442,47.5730261 31.6179066,47.2787873 C31.8226699,48.2282852 32.1399201,49.286873 32.5915587,49.8001712 C33.5097322,50.8439631 35.4434284,51 36.5144296,51 C37.3672206,51 39.4663861,50.8923497 40.5586446,49.8913461 C41.7181377,48.8274798 41.8765212,45.8576597 41.8588067,44.0754317 C43.6151166,43.1345715 45.0408904,41.8600433 45.7264406,41.1940672 C50.9442398,41.0328317 52.1566347,38.6473303 52.2803139,38.3678075 C52.4060062,38.0844457 52.4043153,37.7671733 52.2746775,37.4846113 C52.1451203,37.2017294 51.8979228,36.9781911 51.5885636,36.8643026 C51.1575382,36.7046666 50.7761133,36.4466579 50.4898634,36.1425018 C53.9733348,36.0011809 54.7423846,35.1292616 55.0092291,34.8250256 C56.4158391,33.2287463 56.3772698,27.9320486 54.5548527,26.5517096 C53.7800054,25.9663513 52.7934701,25.8871731 51.9307751,25.8871731 L51.0782256,25.8962906 C50.4654658,25.8962906 50.2966146,25.8387865 50.2522479,25.8142332 C49.8031054,25.4562521 49.5277258,24.8947271 49.1460593,24.1172617 C48.5359567,22.8720055 47.7169842,21.2011068 45.5581531,19.4543091 C45.8590577,17.9164137 46.6265776,16.651163 47.9905923,15.4174236 C48.3084061,15.1293431 48.4355478,14.7100989 48.3260401,14.3129285 C48.2154857,13.9165579 47.8857548,13.6023247 47.4574671,13.4893959 C46.0804886,13.1252564 44.7506145,12.9395477 43.4938529,12.9282708 M22.9506157,0 C19.40611,0 16.5340297,2.79674788 16.5340297,6.24619556 C16.533466,9.69460353 19.4055463,12.4913514 22.9506157,12.4913514 C26.4938332,12.4913514 29.3667992,9.69460353 29.3667992,6.24619556 C29.3667992,2.79610805 26.4932695,0 22.9506157,0" id="Fill-1"></path>
                </g>
            </g>
        </g>
    </g>
</svg>

<svg width="56" height="51" viewBox="0 0 56 51" xmlns="http://www.w3.org/2000/svg"><title>piggy-bank</title><path d="M3.322 23.953c.683 0 1.236.617 1.236 1.38 0 .761-.553 1.379-1.236 1.379-.683 0-1.237-.618-1.237-1.38 0-.762.554-1.38 1.237-1.38m39.264-1.46c.87 0 1.574.69 1.574 1.542 0 .852-.705 1.543-1.574 1.543-.87 0-1.574-.691-1.574-1.543s.705-1.543 1.574-1.543M28.39 15.028c1.08.002 2.148.08 3.196.23l-.14 2.605a21.75 21.75 0 0 0-6.806.123c-2.319.397-4.493 1.122-6.463 2.156l-.994-2.411c2.146-1.124 4.505-1.912 7.014-2.343 1.4-.244 2.806-.364 4.193-.36m15.104-2.1c-2.4-.021-4.532.593-6.218 1.815C34.57 13.851 31.7 13.4 28.73 13.4c-8.798 0-16.395 4.052-19.876 9.877-.932-.665-1.967-1.104-3.03-1.278-.717-.969-1.794-1.735-3.13-2.189-.65-.221-1.371.085-1.613.682-.24.597.093 1.26.742 1.48.284.097.533.208.756.33-1.224.466-2.122 1.314-2.43 2.339-.406 1.349.025 2.602 1.152 3.353.593.395 1.31.594 2.025.594.647 0 1.29-.163 1.833-.494 1.093-.662 1.707-1.91 1.656-3.319.334.184.651.428.957.698a13.502 13.502 0 0 0-.945 4.94c0 4.399 2.126 8.535 6.001 11.707-.082 1.947-.094 6.185 1.222 7.68C14.97 50.844 16.885 51 17.947 51c.672 0 2.95-.08 4.072-1.11.63-.577.96-1.861 1.133-3.022 2.739.56 5.602.705 8.466.41.205.95.522 2.009.974 2.522.918 1.044 2.851 1.2 3.922 1.2.853 0 2.952-.108 4.045-1.109 1.16-1.064 1.318-4.033 1.3-5.816 1.756-.94 3.182-2.215 3.867-2.88 5.218-.162 6.43-2.548 6.554-2.827.126-.284.124-.6-.005-.883a1.205 1.205 0 0 0-.686-.62 2.912 2.912 0 0 1-1.1-.722c3.484-.142 4.253-1.014 4.52-1.318 1.407-1.596 1.368-6.893-.454-8.273-.775-.586-1.762-.665-2.624-.665l-.853.01c-.613 0-.781-.058-.826-.083-.449-.358-.724-.92-1.106-1.697-.61-1.245-1.429-2.916-3.588-4.663.301-1.538 1.069-2.803 2.433-4.037a1.09 1.09 0 0 0 .335-1.104c-.11-.396-.44-.71-.869-.824-1.377-.364-2.706-.55-3.963-.56M22.95 0c-3.545 0-6.417 2.797-6.417 6.246 0 3.449 2.872 6.245 6.417 6.245 3.543 0 6.416-2.796 6.416-6.245C29.367 2.796 26.493 0 22.95 0" fill="#00AFB0" fill-rule="evenodd"/></svg>
